svgs/rtlplus.svg

<svg xmlns="http://www.w3.org/2000/svg" viewBox="0 0 192 192"><path d="M16 96V31.444h28.926l2.204 7.045c4.349 13.9 5.458 32.643 2.881 48.697-.766 4.768-2.198 9.439-3.184 10.378-1.721 1.641-2.539 6.505-1.093 6.505.769 0 2.632 10.694 6.678 38.33l2.659 18.157H41.624l-3.378-22.864-3.379-22.863h-6.828v45.727H16Zm23.015-24.208v-9.415l-5.842-.781-5.842-.781v21.953l5.842-.781 5.842-.781Zm32.06 39.674-.193-49.089-5.488-.785-5.488-.786V31.444h33.283v29.353l-5.134.79-5.134.79-.193 49.089-.193 49.09H71.268ZM101.687 96V31.444h12.039v88.604l9.029.752 9.029.753.208 19.501.208 19.502h-30.513ZM159.484 111.569v-9h-18v-13h18V71.474l6.046-.043 6.454.638.289 8.75.289 8.75h17.922v13h-18v18h-13Z"/></svg>

<svg
    xmlns="http://www.w3.org/2000/svg"
    viewBox="0 0 192 192"
    id="vector">
    <g id="group">
        <path
            id="path_6"
            d="M 16 96 L 16 31.444 L 44.926 31.444 L 47.13 38.489 C 51.479 52.389 52.588 71.132 50.011 87.186 C 49.245 91.954 47.813 96.625 46.827 97.564 C 45.106 99.205 44.288 104.069 45.734 104.069 C 46.503 104.069 48.366 114.763 52.412 142.399 L 55.071 160.556 L 41.624 160.556 L 38.246 137.692 L 34.867 114.829 L 28.039 114.829 L 28.039 160.556 L 16 160.556 Z M 39.015 71.792 L 39.015 62.377 L 33.173 61.596 L 27.331 60.815 L 27.331 82.768 L 33.173 81.987 L 39.015 81.206 Z M 71.075 111.466 L 70.882 62.377 L 65.394 61.592 L 59.906 60.806 L 59.906 31.444 L 93.189 31.444 L 93.189 60.797 L 88.055 61.587 L 82.921 62.377 L 82.728 111.466 L 82.535 160.556 L 71.268 160.556 Z M 101.687 96 L 101.687 31.444 L 113.726 31.444 L 113.726 120.048 L 122.755 120.8 L 131.784 121.553 L 131.992 141.054 L 132.2 160.556 L 101.687 160.556 Z"
            fill="#000000"
            stroke-width="12"/>
    </g>
    <path
        id="path_13"
        d="M 159.484 111.569 L 159.484 102.569 L 141.484 102.569 L 141.484 89.569 L 159.484 89.569 L 159.484 71.474 L 165.53 71.431 L 171.984 72.069 L 172.273 80.819 L 172.562 89.569 L 190.484 89.569 L 190.484 102.569 L 172.484 102.569 L 172.484 120.569 L 159.484 120.569 Z"
        fill="#000000"
        stroke-width="12"/>
</svg>
